svgs/regular/user-shakespeare.svg

<svg xmlns="http://www.w3.org/2000/svg" viewBox="0 0 448 512"><!--! Font Awesome Pro 6.0.0-alpha3 by @fontawesome - https://fontawesome.com License - https://fontawesome.com/license (Commercial License) --><path d="M329.9 326.2C314.4 312.6 294.3 304 272 304h-96c-22.26 0-42.38 8.57-57.89 22.24C50.2 344.7 0 406.3 0 480C0 497.7 14.33 512 32 512h384c17.67 0 32-14.29 32-31.96C448 406.3 397.8 344.7 329.9 326.2zM175.1 351.9h96.04c19.72 0 36.14 14.45 39.39 33.23C289.2 376.4 258.8 368 224 368s-65.22 8.422-87.41 17.12C139.8 366.3 156.3 351.9 175.1 351.9zM240 464c0-8.838-7.164-16-16-16s-16 7.162-16 16H49.14C53.12 436.3 67.5 412.1 88 394.9V424c0 8.828 4.875 16.91 12.62 21.09c7.719 4.141 17.19 3.781 24.62-1.078c.3672-.2539 35.4-22.65 82.94-27.08C208.7 425.3 215.5 432 224 432s15.3-6.689 15.81-15.06c47.54 4.428 82.57 26.82 82.88 27.03C326.7 446.6 331.3 448 336 448c3.875 0 7.781-.9375 11.31-2.844C355.1 440.1 360 432.8 360 424v-29.13c20.5 17.2 34.88 41.4 38.86 69.13H240zM256 144c8.836 0 16-7.164 16-16c0-8.838-7.164-16-16-16S240 119.2 240 128C240 136.8 247.2 144 256 144zM192 144c8.836 0 16-7.164 16-16c0-8.838-7.164-16-16-16S176 119.2 176 128C176 136.8 183.2 144 192 144zM188 204c14.34 0 27.78-7.316 36-12.91C232.2 196.7 245.7 204 260 204c6.625 0 12-5.377 12-12.01c0-6.627-5.375-12-12-12c-10.91 0-23.94-9.379-28.06-12.99c-4.5-4-11.38-4-15.88 0C211.9 170.6 198.9 179.1 188 179.1c-6.625 0-12 5.377-12 12C176 198.6 181.4 204 188 204zM109.3 272h53.98C181.4 281.9 201.9 288 224 288s42.62-6.123 60.77-16h53.98C363.7 272 384 251.7 384 226.7c0-12-4.768-23.51-13.25-32C358.7 182.7 352 166.5 352 149.5V128c0-70.69-57.31-128-128-128S96 57.31 96 128v21.49c0 16.97-6.742 33.25-18.75 45.25C68.77 203.2 64 214.7 64 226.7C64 251.7 84.26 272 109.3 272zM144 128c0-44.11 35.89-80 80-80s80 35.89 80 80v32c0 40-29.6 72.94-68 78.79V224c0-6.625-5.375-12-12-12S212 217.4 212 224v14.79C173.6 232.9 144 200 144 160V128z"/></svg>

<svg xmlns="http://www.w3.org/2000/svg" viewBox="0 0 448 512"><!-- Font Awesome Pro 6.0.0-alpha2 by @fontawesome - https://fontawesome.com License - https://fontawesome.com/license (Commercial License) --><path d="M329.891 326.244C314.379 312.57 294.26 304 272 304H176C153.74 304 133.621 312.57 118.109 326.244C50.201 344.748 0 406.229 0 480C0 497.672 14.326 512 32 512H416C433.674 512 448 497.672 448 480C448 406.229 397.799 344.748 329.891 326.244ZM176 352H272C291.719 352 308.156 366.344 311.406 385.125C289.219 376.422 258.781 368 224 368S158.781 376.422 136.594 385.125C139.844 366.344 156.281 352 176 352ZM240 464C240 455.162 232.836 448 224 448S208 455.162 208 464H49.139C53.123 436.268 67.498 412.068 88 394.871V424C88 432.828 92.875 440.906 100.625 445.094C108.344 449.234 117.812 448.875 125.25 444.016C125.617 443.762 160.646 421.363 208.189 416.936C208.701 425.311 215.496 432 224 432S239.299 425.311 239.811 416.936C287.352 421.363 322.377 443.758 322.688 443.969C326.719 446.641 331.344 448 336 448C339.875 448 343.781 447.062 347.312 445.156C355.125 440.984 360 432.844 360 424V394.871C380.502 412.068 394.877 436.268 398.861 464H240ZM256 144C264.836 144 272 136.836 272 128C272 119.162 264.836 112 256 112S240 119.162 240 128C240 136.836 247.164 144 256 144ZM192 144C200.836 144 208 136.836 208 128C208 119.162 200.836 112 192 112S176 119.162 176 128C176 136.836 183.164 144 192 144ZM188 204C202.344 204 215.781 196.684 224 191.088C232.219 196.684 245.656 204 260 204C266.625 204 272 198.623 272 191.994C272 185.367 266.625 179.99 260 179.99C249.094 179.99 236.062 170.611 231.938 167C227.438 163 220.562 163 216.062 167C211.938 170.611 198.906 179.99 188 179.99C181.375 179.99 176 185.367 176 191.994C176 198.623 181.375 204 188 204ZM109.254 272H163.23C181.385 281.877 201.879 288 224 288S266.615 281.877 284.77 272H338.746C363.738 272 384 251.742 384 226.746C384 214.742 379.232 203.234 370.746 194.746C358.742 182.742 352 166.465 352 149.492V128C352 57.307 294.693 0 224 0S96 57.307 96 128V149.492C96 166.465 89.258 182.742 77.254 194.746C68.768 203.234 64 214.742 64 226.746C64 251.742 84.262 272 109.254 272ZM144 128C144 83.887 179.889 48 224 48S304 83.887 304 128V160C304 200.002 274.396 232.939 236 238.785V224C236 217.375 230.625 212 224 212S212 217.375 212 224V238.785C173.604 232.939 144 200.002 144 160V128Z"/></svg>
